X:1
T:James Gibb editions
T:Confirma hoc Deus - Ravanello
T:#
%%score { 1 | 2 } 3
L:1/8
Q:1/4=76
M:4/4
K:Eb
V:1 treble nm="Soprano I" snm="S"
V:2 treble 
V:3 treble nm="Alto" snm="A"
V:1
 z2 | z2"^Confirma hoc Deus, op.66/16""^Oreste Ravanello\n (1871-1938)""^moderato"!p! e2 e4- | %2
w: |Con- fir\-|
 e2 e2"^," e4 | (dcde f2 ed | c4)"^," d2 d2 | c2 f2 e3 B |[M:4/4] c2 c2 B3 A | G2 FE F4- | %8
w: * ma hoc|De\- * * * * * *|* us, Quod|o- pe- ra- tus|es in no\- *|* * * bis:|
 F z B2 B2 B2 | e4 c4- | c z c2 c2 c2 | (f3 e)"^," d2 e2- | e2 d2 c3 B | =A6 A2 |"^," =B4 B2 B2 | %15
w: * a tem- plo|tu- o,|* a tem- plo|tu\- * o, Quod|* est in Je-|ru- sa-|lem, Ti- bi|
 d3 =B B2 g2- | g2 f2 g4- | g2 f2 e2 e2- | e2 e4 !>!B!>!c | (defd e2) d2 |"^," c2 f3 edc | %21
w: of- fer- ent, ti\-|* bi of\-|* fer- ent, re\-|* ges, re- ges|mu\- * * * * ne-|ra, mu\- * * *|
 (d2 e4) d2 | !fermata!e8 ||[M:3/4]"^allegro molto"!f![Q:1/4=100] B2 B2 c2 | (e2 d2 cd) | %25
w: * * ne-|ra.|Al- le- lu-|ja, * * *|
 (ef) g2 (fe) |"^," d6 |[M:3/4][Q:1/4=100]!ff![Q:1/4=100] d2 e2 f2 | (g3 fed) | %29
w: Al\- * le- lu\- *|ja,|Al- le- lu-|ja, * * *|
 (!^!cd) !^!e2 !^!d2 | e6 | e4 e2 | c6 | !fermata!B6 |] %34
w: Al\- * le- lu-|ja,|Al- le-|lu-|ja.|
V:2
!p! B2 | B4 B2 B2 | (c2 B4)"^," =A2 | (B8- | B2 =A2)"^," B2 B2 | c2 c2 B2 G2- | %6
w: Con-|fir- ma hoc|De\- * us,|De\-|* * us, Quod|o- pe- ra\- *|
[M:4/4] (G2 (FE)"^," D2 E2 | (E2 DC) D4- | D z D2 G2 F2 | G4 =A4- | A z =A2 A2 G2 | %11
w: * tus * es in|no\- * * bis:|* a tem- plo|tu- o,|* a tem- plo|
 (F2 G=A)"^," B2 G2- | G2 G2 G2 G2 | (G2 =E2) ^F4 |"^," G4 G2 G2 | =B3 G G2 BB | %16
w: tu\- * * o, Quod|* est in Je-|ru\- * sa-|lem, Ti- bi|of- fer- ent, ti- bi|
 c3 c =B2 !>!G!>!=A | (=BcdB c2) c2 | _B4 c2 B2 | (_A4 G4- | G2) FE)"^," D2 B2- | (BA G2) F4 | %22
w: of- fer- ent re- ges|mu\- * * * * ne-|ra, re- ges|mu\- *|* ne\- * ra, mu\-|* * * ne-|
 !fermata!G8 ||[M:3/4]!f! G2 G2 A2 | (B2 A4) | G2 (cB) =A2 |"^," B6 |[M:3/4]!ff! B2 c2 _A2 | %28
w: ra.|Al- le- lu-|ja, *|Al- le\- * lu-|ja,|Al- le- lu-|
 (GA B4) | !^!c2 !^!B2 !^!A2 | G6 | G4 G2 | A6 | !fermata!G6 |] %34
w: ja, * *|Al- le- lu-|ja,|Al- le-|lu-|ja.|
V:3
!p! E2 | (E3 F) G2 G2 | (A2 G2)"^," C4 | (G4 D2 E2 | F4)"^," B,2 B2- | B2 AA G2 E2 | %6
w: Con-|fir\- * ma hoc|De\- * us,|De\- * *|* us, Quod|* o- pe- ra- tus|
[M:4/4] A,4 (B,2 C2) | B,4 B,4- | B, z B,2 E2 D2 | C4 F4- | F z F2 F2 E2 | (D2 C2)"^," B,2 C2- | %12
w: es in *|no- bis:|* a tem- plo|tu- o,|* a tem- plo|tu\- * o, Quod|
 C2 B,2 E2 D2 | C4 D4 | G,8 | z2 G4 G2 | A3 A G2 z2 | z4 z2 !>!C!>!D | (EFGE A2) G2 | F4 C2 B,2 | %20
w: * est in Je-|ru- sa-|lem,|Ti- bi|of- fer- ent|re- ges|mu\- * * * * ne-|ra, re- ges|
 A,2 =A,2 B,4 | B,4 B,4 | !fermata!E8 ||[M:3/4]!f! E2 E2 A2 | G2 F4 | (CD) E2 F2 |"^," B,6 | %27
w: mu- ne- ra,|mu- ne-|ra.|Al- le- lu-|ja, *|Al\- * le- lu-|ja,|
[M:3/4]!ff! B2 _A2 F2 | (EF G4) | !^!A2 !^!G2 !^!F2 | [CE]6 | [CE]4 [CE]2 | [A,E]6 | !fermata!E6 |] %34
w: Al- le- lu-|ja, * *|Al- le- lu-|ja,|Al- le-|lu-|ja.|

